svg/fluentui-system-icons/ic_fluent_text_asterisk_20_filled.svg

<svg width="20" height="20" viewBox="0 0 20 20" fill="none" xmlns="http://www.w3.org/2000/svg">
<path d="M10.6004 2.50039C10.6004 2.16902 10.3318 1.90039 10.0004 1.90039C9.66902 1.90039 9.40039 2.16902 9.40039 2.50039V8.55172L5.12143 4.27276C4.88711 4.03844 4.50721 4.03844 4.2729 4.27276C4.03858 4.50707 4.03858 4.88697 4.2729 5.12129L8.55195 9.40034H2.50039C2.16902 9.40034 1.90039 9.66897 1.90039 10.0003C1.90039 10.3317 2.16902 10.6003 2.50039 10.6003H8.55209L4.273 14.8794C4.03869 15.1137 4.03869 15.4936 4.273 15.728C4.50732 15.9623 4.88721 15.9623 5.12153 15.728L9.40039 11.4491V17.5004C9.40039 17.8318 9.66902 18.1004 10.0004 18.1004C10.3318 18.1004 10.6004 17.8318 10.6004 17.5004V11.4488L14.8795 15.7279C15.1138 15.9622 15.4937 15.9622 15.728 15.7279C15.9623 15.4936 15.9623 15.1137 15.728 14.8794L11.449 10.6003H17.5004C17.8318 10.6003 18.1004 10.3317 18.1004 10.0003C18.1004 9.66897 17.8318 9.40034 17.5004 9.40034H11.4491L15.7281 5.12135C15.9624 4.88704 15.9624 4.50714 15.7281 4.27283C15.4938 4.03851 15.1139 4.03851 14.8796 4.27283L10.6004 8.55204V2.50039Z" fill="#212121"/>
</svg>

<svg xmlns="http://www.w3.org/2000/svg" width="20" height="20"><path d="M10.6 2.5a.6.6 0 1 0-1.2 0v6.052l-4.279-4.28a.6.6 0 1 0-.848.85L8.552 9.4H2.5a.6.6 0 1 0 0 1.2h6.052l-4.279 4.28a.6.6 0 0 0 .849.848L9.4 11.449V17.5a.6.6 0 1 0 1.2 0v-6.05l4.28 4.279a.6.6 0 0 0 .848-.849l-4.279-4.28H17.5a.6.6 0 1 0 0-1.2h-6.05l4.278-4.279a.6.6 0 0 0-.848-.848L10.6 8.552V2.5Z"/></svg>
